src/img/categories/luggage.svg

<svg width="25" height="44" viewBox="0 0 25 44" fill="none" xmlns="http://www.w3.org/2000/svg">
<path d="M24.3583 10.6229L20.8817 7.14632H16.7521V4.1342H17.5431V3.29724H17.5339V0H7.60996V3.29724V4.1342H8.48371V7.14632H4.09658L0.619995 10.6229V38.4448L2.90553 40.7304C2.6664 41.0661 2.52844 41.4753 2.52844 41.9214C2.52844 43.0665 3.45737 44 4.60244 44C5.7475 44 6.68103 43.0711 6.68103 41.9214H18.357C18.357 43.0665 19.286 44 20.4356 44C21.5853 44 22.5142 43.0711 22.5142 41.9214C22.5142 41.4661 22.3625 41.0431 22.1095 40.7028L24.3675 38.4448V10.6229H24.3583ZM9.05394 4.1342H9.82652V3.29724H15.3219V4.1342H16.1773V7.14632H9.05394V4.1342ZM5.82108 20.0226L5.4256 16.9277L17.9569 15.3227L18.3524 18.4176L5.82108 20.0226ZM16.2922 21.6643C16.2922 20.5238 17.2166 19.6041 18.3524 19.6041C19.4929 19.6041 20.4126 20.5284 20.4126 21.6643C20.4126 22.8002 19.4883 23.7245 18.3524 23.7245C17.2166 23.7245 16.2922 22.8048 16.2922 21.6643Z" fill="#232F3E"/>
</svg>

<svg width="25" height="44" fill="none" xmlns="http://www.w3.org/2000/svg"><path d="M24.358 10.623l-3.476-3.477h-4.13V4.134h.791v-.837h-.01V0H7.61v4.134h.874v3.012H4.097L.62 10.623v27.822l2.286 2.285A2.078 2.078 0 004.603 44a2.08 2.08 0 002.078-2.079h11.676a2.08 2.08 0 004.157 0 2.04 2.04 0 00-.404-1.218l2.258-2.258V10.623h-.01zM9.054 4.134h.773v-.837h5.495v.837h.855v3.012H9.054V4.134zM5.82 20.023l-.395-3.095 12.53-1.605.396 3.095-12.53 1.605zm10.471 1.641a2.06 2.06 0 114.12 0 2.06 2.06 0 01-4.12 0z" fill="#232F3E"/></svg>
